packages/astro-components-stencil/src/icons/format-italic.svg

<svg xmlns="http://www.w3.org/2000/svg" viewBox="0 0 24 24"><g xmlns="http://www.w3.org/2000/svg" id="format-italic" fill-rule="nonzero">
            <path d="M10 5.5c0 .83.67 1.5 1.5 1.5h.71l-3.42 8H7.5c-.83 0-1.5.67-1.5 1.5S6.67 18 7.5 18h5c.83 0 1.5-.67 1.5-1.5s-.67-1.5-1.5-1.5h-.71l3.42-8h1.29c.83 0 1.5-.67 1.5-1.5S17.33 4 16.5 4h-5c-.83 0-1.5.67-1.5 1.5z"/>
        </g></svg>

<svg width="24" height="24" viewBox="0 0 24 24" fill="none" xmlns="http://www.w3.org/2000/svg">
<path d="M10 5.5C10 6.33 10.67 7 11.5 7H12.21L8.79 15H7.5C6.67 15 6 15.67 6 16.5C6 17.33 6.67 18 7.5 18H12.5C13.33 18 14 17.33 14 16.5C14 15.67 13.33 15 12.5 15H11.79L15.21 7H16.5C17.33 7 18 6.33 18 5.5C18 4.67 17.33 4 16.5 4H11.5C10.67 4 10 4.67 10 5.5Z" fill="black"/>
</svg>
